src/components/Icon/assets/app-check.svg

<svg width="24" height="24" viewBox="0 0 24 24" fill="none" xmlns="http://www.w3.org/2000/svg">
<g id="app-check">
<path id="Combined Shape" fill-rule="evenodd" clip-rule="evenodd" d="M17.0732 19.0003C18.1362 19.0003 19.0002 18.1353 19.0002 17.0733V12.0003H21.0002V17.0733C21.0002 19.2383 19.2382 21.0003 17.0732 21.0003H6.9272C4.7622 21.0003 3.0002 19.2383 3.0002 17.0733V6.92731C3.0002 4.76131 4.7622 3.00031 6.9272 3.00031H12.0002V5.00031H6.9272C5.8642 5.00031 5.0002 5.86431 5.0002 6.92731V17.0733C5.0002 18.1353 5.8642 19.0003 6.9272 19.0003H17.0732ZM10.811 8.01211L14.965 12.0001L22 5.38911L20.631 3.93211L14.98 9.24111L12.196 6.56811L10.811 8.01211Z" fill="#242428"/>
</g>
</svg>

<svg xmlns="http://www.w3.org/2000/svg" width="24" height="24" fill="none" viewBox="0 0 24 24">
    <path fill="#65676A" fill-rule="evenodd" d="M17.073 19C18.136 19 19 18.135 19 17.073V12h2v5.073C21 19.238 19.238 21 17.073 21H6.927C4.762 21 3 19.238 3 17.073V6.927C3 4.761 4.762 3 6.927 3H12v2H6.927C5.864 5 5 5.864 5 6.927v10.146C5 18.135 5.864 19 6.927 19h10.146zM10.811 8.012L14.965 12 22 5.39l-1.369-1.458-5.651 5.31-2.784-2.674-1.385 1.444z" clip-rule="evenodd"/>
</svg>
